Flat-Remix-Blue-Dark/apps/scalable/nootka.svg

<?xml version="1.0" encoding="UTF-8" standalone="no"?>
<svg
   xmlns:dc="http://purl.org/dc/elements/1.1/"
   xmlns:cc="http://creativecommons.org/ns#"
   xmlns:rdf="http://www.w3.org/1999/02/22-rdf-syntax-ns#"
   xmlns:svg="http://www.w3.org/2000/svg"
   xmlns="http://www.w3.org/2000/svg"
   xmlns:xlink="http://www.w3.org/1999/xlink"
   xmlns:sodipodi="http://sodipodi.sourceforge.net/DTD/sodipodi-0.dtd"
   xmlns:inkscape="http://www.inkscape.org/namespaces/inkscape"
   width="512"
   height="512"
   version="1.1"
   viewBox="0 0 384 384"
   id="svg52"
   sodipodi:docname="nootka.svg"
   inkscape:version="0.92.4 5da689c313, 2019-01-14">
  <metadata
     id="metadata56">
    <rdf:RDF>
      <cc:Work
         rdf:about="">
        <dc:format>image/svg+xml</dc:format>
        <dc:type
           rdf:resource="http://purl.org/dc/dcmitype/StillImage" />
        <dc:title></dc:title>
      </cc:Work>
    </rdf:RDF>
  </metadata>
  <sodipodi:namedview
     pagecolor="#ffffff"
     bordercolor="#666666"
     borderopacity="1"
     objecttolerance="10"
     gridtolerance="10"
     guidetolerance="10"
     inkscape:pageopacity="0"
     inkscape:pageshadow="2"
     inkscape:window-width="640"
     inkscape:window-height="480"
     id="namedview54"
     showgrid="false"
     inkscape:zoom="1.1171875"
     inkscape:cx="85.43881"
     inkscape:cy="248.76285"
     inkscape:current-layer="svg52" />
  <defs
     id="defs38">
    <filter
       id="alpha"
       width="100%"
       height="100%"
       x="0%"
       y="0%"
       filterUnits="objectBoundingBox">
      <feColorMatrix
         in="SourceGraphic"
         type="matrix"
         values="0 0 0 0 1 0 0 0 0 1 0 0 0 0 1 0 0 0 1 0"
         id="feColorMatrix2" />
    </filter>
    <mask
       id="mask0">
      <g
         filter="url(#alpha)"
         id="g7">
        <rect
           width="384"
           height="384"
           x="0"
           y="0"
           style="fill:rgb(0%,0%,0%);fill-opacity:0.2"
           id="rect5" />
      </g>
    </mask>
    <clipPath
       id="clip1">
      <rect
         width="384"
         height="384"
         x="0"
         y="0"
         id="rect10" />
    </clipPath>
    <g
       id="surface5"
       clip-path="url(#clip1)">
      <path
         style="fill:rgb(0%,0%,0%)"
         d="M 24 336 L 24 348 C 24 357.972656 32.027344 366 42 366 L 342 366 C 351.972656 366 360 357.972656 360 348 L 360 336 C 360 345.972656 351.972656 354 342 354 L 42 354 C 32.027344 354 24 345.972656 24 336 Z M 24 336"
         id="path13" />
    </g>
    <mask
       id="mask1">
      <g
         filter="url(#alpha)"
         id="g18">
        <rect
           width="384"
           height="384"
           x="0"
           y="0"
           style="fill:rgb(0%,0%,0%);fill-opacity:0.501961"
           id="rect16" />
      </g>
    </mask>
    <clipPath
       id="clip2">
      <rect
         width="384"
         height="384"
         x="0"
         y="0"
         id="rect21" />
    </clipPath>
    <g
       id="surface8"
       clip-path="url(#clip2)">
      <path
         style="fill-rule:evenodd;fill:rgb(6.666%,17.647%,36.078%)"
         d="M 60 108 L 60 120 L 324 120 L 324 108 Z M 60 144 L 60 156 L 324 156 L 324 144 Z M 60 180 L 60 192 L 324 192 L 324 180 Z M 60 216 L 60 228 L 324 228 L 324 216 Z M 60 252 L 60 264 L 324 264 L 324 252 Z M 60 252"
         id="path24" />
    </g>
    <mask
       id="mask2">
      <g
         filter="url(#alpha)"
         id="g29">
        <rect
           width="384"
           height="384"
           x="0"
           y="0"
           style="fill:rgb(0%,0%,0%);fill-opacity:0.101961"
           id="rect27" />
      </g>
    </mask>
    <clipPath
       id="clip3">
      <rect
         width="384"
         height="384"
         x="0"
         y="0"
         id="rect32" />
    </clipPath>
    <g
       id="surface11"
       clip-path="url(#clip3)">
      <path
         style="fill:rgb(100.000%,100.000%,100.000%)"
         d="M 42 24 C 32.027344 24 24 32.027344 24 42 L 24 48 C 24 38.027344 32.027344 30 42 30 L 342 30 C 351.972656 30 360 38.027344 360 48 L 360 42 C 360 32.027344 351.972656 24 342 24 Z M 42 24"
         id="path35" />
    </g>
  </defs>
  <path
     style="opacity:0.2;fill:#ffffff;stroke:#000000;stroke-width:7.41835356;stroke-miterlimit:4;stroke-dasharray:none;stroke-opacity:1"
     d="M 360.75,339.40706 V 44.592927 c 0,-9.76955 -8.09457,-17.688841 -18.08037,-17.688841 H 41.330358 c -9.985783,0 -18.080353,7.919291 -18.080353,17.688841 V 339.40706 c 0,9.76956 8.09457,17.68886 18.080353,17.68886 H 342.66963 c 9.9858,0 18.08037,-7.91929 18.08037,-17.68886 z m 0,0"
     id="path42-35"
     inkscape:connector-curvature="0" />
  <path
     inkscape:connector-curvature="0"
     id="path42"
     d="M 360.75,342.66964 V 41.330357 C 360.75,31.34457 352.65543,23.25 342.66964,23.25 H 41.330357 C 31.34457,23.25 23.25,31.34457 23.25,41.330357 V 342.66964 c 0,9.98579 8.09457,18.08036 18.080357,18.08036 H 342.66964 c 9.98579,0 18.08036,-8.09457 18.08036,-18.08036 z m 0,0"
     style="fill:#ffffff;stroke-width:1.00446427" />
  <use
     height="100%"
     width="100%"
     y="0"
     x="0"
     id="use44"
     xlink:href="#surface8"
     mask="url(#mask1)" />
  <use
     height="100%"
     width="100%"
     y="0"
     x="0"
     id="use46"
     xlink:href="#surface11"
     mask="url(#mask2)" />
  <path
     inkscape:connector-curvature="0"
     style="fill:#000000;stroke-width:0.99999994;fill-opacity:1;opacity:0.3"
     d="m 170.34766,192.15234 c -7.09766,-7.44531 -17.24219,-12.09375 -29.41407,-11.16406 -1.01562,-1.85937 -5.07422,-20.46484 -5.07422,-20.46484 0,0 14.20313,-19.53516 17.2461,-23.25782 15.21484,-22.3242 16.23047,-39.999995 7.10156,-57.671865 -3.04297,-6.51172 -11.16016,-12.09375 -19.27344,-12.09375 -6.08593,0 -11.16015,4.65234 -14.20312,10.23437 -10.14063,15.8125 -10.14063,45.578125 -5.07031,66.042965 0,0 -5.07032,4.65235 -10.14453,10.23438 -10.14063,10.23046 -21.30078,21.39453 -25.35547,36.27733 -5.074219,16.74611 -1.01563,32.55861 10.14062,44.65236 12.17188,13.95312 30.42969,20.46484 52.74609,18.60546 4.0586,17.67187 7.10157,28.83594 1.01563,39.0664 -2.02734,3.72266 -6.08594,7.44531 -13.1875,7.44531 -2.02734,0 -3.04297,0 -5.07031,-0.93358 6.08593,-2.78907 11.15625,-8.3711 11.15625,-14.88282 0,-9.30078 -8.11328,-16.74219 -18.25781,-16.74219 -17.24219,0.9297 -18.25782,16.74219 -18.25782,16.74219 0,5.58204 2.02735,11.16406 6.08594,14.88282 5.07031,4.65234 13.1875,8.37499 22.31641,8.37499 11.15625,0 22.3164,-3.72265 26.37109,-18.60547 4.05859,-12.09375 -3.04297,-31.62891 -4.05469,-38.14062 11.15625,-4.64844 21.30078,-18.60546 22.3125,-27.90624 2.03125,-10.23048 -2.02734,-22.32423 -9.1289,-30.69532 z M 137.89062,88.894535 c 1.01172,-1.85938 3.04297,-2.78906 5.07032,-2.78906 1.01562,0 3.04297,0.92968 4.05859,1.85937 4.05859,1.85938 5.07031,5.58203 5.07031,11.16407 -1.01172,13.953115 -14.19922,30.695305 -21.30078,36.277335 -3.04297,-13.02344 -1.01562,-37.207025 7.10156,-46.511715 z M 108.47266,234.94141 c -7.09766,-6.51173 -10.14063,-15.81251 -9.12891,-25.1172 2.03125,-14.8828 13.1875,-26.97655 22.31641,-36.27734 2.02734,-1.86328 4.05859,-3.72265 5.07031,-5.58203 1.01562,4.65235 4.05859,12.09375 5.07422,15.8125 -12.17188,4.65234 -19.27344,19.53516 -18.25781,31.62891 0,5.58202 2.02734,9.30078 5.07031,13.02343 1.01562,0.92969 2.02734,1.85937 3.04297,1.85937 1.01562,0 3.04297,-0.92968 3.04297,-1.85937 1.01562,-0.92968 1.01562,-2.78907 0,-3.72265 -1.01563,-0.9297 -1.01563,-1.85937 -1.01563,-3.71876 -1.01172,-8.37109 5.07422,-14.88279 12.17187,-17.67577 1.01563,5.58203 8.11719,34.41796 9.13282,40.92969 -13.1875,3.72264 -27.39063,0 -36.51953,-9.30078 z m 45.64843,5.58202 c -2.03125,-6.51172 -3.04297,-13.95313 -5.07422,-22.32813 -1.01171,-5.57812 -2.02734,-12.08983 -4.05468,-17.67187 13.18359,0 17.24218,10.23048 18.25781,13.95313 3.04297,10.23047 0,20.46485 -9.12891,26.04687 z m 0,0"
     id="path48-6" />
  <path
     inkscape:connector-curvature="0"
     id="path48"
     d="m 170.34766,184.65234 c -7.09766,-7.44531 -17.24219,-12.09375 -29.41407,-11.16406 -1.01562,-1.85937 -5.07422,-20.46484 -5.07422,-20.46484 0,0 14.20313,-19.53516 17.2461,-23.25782 15.21484,-22.32421 16.23047,-39.999995 7.10156,-57.67187 C 157.16406,65.582031 149.04687,60 140.93359,60 c -6.08593,0 -11.16015,4.652344 -14.20312,10.234375 -10.14063,15.8125 -10.14063,45.578125 -5.07031,66.042965 0,0 -5.07032,4.65235 -10.14453,10.23438 -10.14063,10.23047 -21.300786,21.39453 -25.355474,36.27734 -5.074218,16.7461 -1.015625,32.5586 10.140625,44.65235 12.171879,13.95312 30.429689,20.46484 52.746089,18.60546 4.0586,17.67188 7.10157,28.83594 1.01563,39.06641 -2.02734,3.72266 -6.08594,7.44531 -13.1875,7.44531 -2.02734,0 -3.04297,0 -5.07031,-0.93359 6.08593,-2.78906 11.15625,-8.37109 11.15625,-14.88281 0,-9.30078 -8.11328,-16.74219 -18.25781,-16.74219 -17.24219,0.92969 -18.25782,16.74219 -18.25782,16.74219 0,5.58203 2.02735,11.16406 6.08594,14.88281 5.07031,4.65234 13.1875,8.375 22.31641,8.375 11.15625,0 22.3164,-3.72266 26.37109,-18.60547 4.05859,-12.09375 -3.04297,-31.62891 -4.05469,-38.14062 11.15625,-4.64844 21.30078,-18.60547 22.3125,-27.90625 2.03125,-10.23047 -2.02734,-22.32422 -9.1289,-30.69532 z M 137.89062,81.394531 c 1.01172,-1.859375 3.04297,-2.789062 5.07032,-2.789062 1.01562,0 3.04297,0.929687 4.05859,1.859375 4.05859,1.859375 5.07031,5.582031 5.07031,11.164062 -1.01172,13.953124 -14.19922,30.695314 -21.30078,36.277344 -3.04297,-13.02344 -1.01562,-37.207031 7.10156,-46.511719 z M 108.47266,227.44141 c -7.09766,-6.51172 -10.140629,-15.8125 -9.12891,-25.11719 2.03125,-14.88281 13.1875,-26.97656 22.31641,-36.27735 2.02734,-1.86328 4.05859,-3.72265 5.07031,-5.58203 1.01562,4.65235 4.05859,12.09375 5.07422,15.8125 -12.17188,4.65235 -19.27344,19.53516 -18.25781,31.62891 0,5.58203 2.02734,9.30078 5.07031,13.02344 1.01562,0.92968 2.02734,1.85937 3.04297,1.85937 1.01562,0 3.04297,-0.92969 3.04297,-1.85937 1.01562,-0.92969 1.01562,-2.78907 0,-3.72266 -1.01563,-0.92969 -1.01563,-1.85937 -1.01563,-3.71875 -1.01172,-8.37109 5.07422,-14.88281 12.17187,-17.67578 1.01563,5.58203 8.11719,34.41797 9.13282,40.92969 -13.1875,3.72265 -27.39063,0 -36.51953,-9.30078 z m 45.64843,5.58203 c -2.03125,-6.51172 -3.04297,-13.95313 -5.07422,-22.32813 -1.01171,-5.57812 -2.02734,-12.08984 -4.05468,-17.67187 13.18359,0 17.24218,10.23047 18.25781,13.95312 3.04297,10.23047 0,20.46485 -9.12891,26.04688 z m 0,0"
     style="fill:#0f2b5c" />
  <path
     style="fill:#000000;stroke-width:1.33928549;fill-opacity:1;opacity:0.3"
     d="M 31 446.89258 L 31 456.89258 C 31 470.20696 41.793035 481 55.107422 481 L 456.89258 481 C 470.20696 481 481 470.20696 481 456.89258 L 481 446.89258 C 481 460.20696 470.20696 471 456.89258 471 L 55.107422 471 C 41.793049 471 31 460.20696 31 446.89258 z "
     transform="scale(0.75)"
     id="path42-3" />
  <path
     style="fill:#000000;stroke-width:1.33928549;fill-opacity:1;opacity:0.1"
     d="M 55.107422 31 C 41.793035 31 31 41.793035 31 55.107422 L 31 65.107422 C 31 51.793035 41.793035 41 55.107422 41 L 456.89258 41 C 470.20696 41 481 51.793035 481 65.107422 L 481 55.107422 C 481 41.793035 470.20696 31 456.89258 31 L 55.107422 31 z "
     transform="scale(0.75)"
     id="path42-7" />
</svg>

<svg width="512" height="512" version="1.1" viewBox="0 0 384 384" xmlns="http://www.w3.org/2000/svg" xmlns:xlink="http://www.w3.org/1999/xlink"><defs><filter id="alpha" x="0%" y="0%" width="100%" height="100%"><feColorMatrix in="SourceGraphic" values="0 0 0 0 1 0 0 0 0 1 0 0 0 0 1 0 0 0 1 0"/></filter><clipPath><rect width="384" height="384"/></clipPath><mask id="d"><g filter="url(#alpha)"><rect width="384" height="384" fill-opacity=".50196"/></g></mask><clipPath id="f"><rect width="384" height="384"/></clipPath><g id="a" clip-path="url(#f)"><path d="m60 108v12h264v-12zm0 36v12h264v-12zm0 36v12h264v-12zm0 36v12h264v-12zm0 36v12h264v-12z" fill="#102c5b" fill-rule="evenodd"/></g><mask id="c"><g filter="url(#alpha)"><rect width="384" height="384" fill-opacity=".10196"/></g></mask><clipPath id="e"><rect width="384" height="384"/></clipPath><g id="b" clip-path="url(#e)"><path d="m42 24c-9.9727 0-18 8.0273-18 18v6c0-9.9727 8.0273-18 18-18h300c9.9727 0 18 8.0273 18 18v-6c0-9.9727-8.0273-18-18-18z" fill="#fff"/></g></defs><path d="m360.75 339.41v-294.81c0-9.7696-8.0946-17.689-18.08-17.689h-301.34c-9.9858 0-18.08 7.9193-18.08 17.689v294.81c0 9.7696 8.0946 17.689 18.08 17.689h301.34c9.9858 0 18.08-7.9193 18.08-17.689z" fill="#fff" opacity=".2" stroke="#000" stroke-width="7.4184"/><path d="m360.75 342.67v-301.34c0-9.9858-8.0946-18.08-18.08-18.08h-301.34c-9.9858 0-18.08 8.0946-18.08 18.08v301.34c0 9.9858 8.0946 18.08 18.08 18.08h301.34c9.9858 0 18.08-8.0946 18.08-18.08z" fill="#fff" stroke-width="1.0045"/><use width="100%" height="100%" mask="url(#d)" xlink:href="#a"/><use width="100%" height="100%" mask="url(#c)" xlink:href="#b"/><path d="m170.35 192.15c-7.0977-7.4453-17.242-12.094-29.414-11.164-1.0156-1.8594-5.0742-20.465-5.0742-20.465s14.203-19.535 17.246-23.258c15.215-22.324 16.23-40 7.1016-57.672-3.043-6.5117-11.16-12.094-19.273-12.094-6.0859 0-11.16 4.6523-14.203 10.234-10.141 15.812-10.141 45.578-5.0703 66.043 0 0-5.0703 4.6524-10.145 10.234-10.141 10.23-21.301 21.395-25.355 36.277-5.0742 16.746-1.0156 32.559 10.141 44.652 12.172 13.953 30.43 20.465 52.746 18.605 4.0586 17.672 7.1016 28.836 1.0156 39.066-2.0273 3.7227-6.0859 7.4453-13.188 7.4453-2.0273 0-3.043 0-5.0703-0.93358 6.0859-2.7891 11.156-8.3711 11.156-14.883 0-9.3008-8.1133-16.742-18.258-16.742-17.242 0.9297-18.258 16.742-18.258 16.742 0 5.582 2.0274 11.164 6.0859 14.883 5.0703 4.6523 13.188 8.375 22.316 8.375 11.156 0 22.316-3.7226 26.371-18.605 4.0586-12.094-3.043-31.629-4.0547-38.141 11.156-4.6484 21.301-18.605 22.312-27.906 2.0312-10.23-2.0273-22.324-9.1289-30.695zm-32.457-103.26c1.0117-1.8594 3.043-2.7891 5.0703-2.7891 1.0156 0 3.043 0.92968 4.0586 1.8594 4.0586 1.8594 5.0703 5.582 5.0703 11.164-1.0117 13.953-14.199 30.695-21.301 36.277-3.043-13.023-1.0156-37.207 7.1016-46.512zm-29.418 146.05c-7.0977-6.5117-10.141-15.813-9.1289-25.117 2.0312-14.883 13.188-26.977 22.316-36.277 2.0273-1.8633 4.0586-3.7226 5.0703-5.582 1.0156 4.6524 4.0586 12.094 5.0742 15.812-12.172 4.6523-19.273 19.535-18.258 31.629 0 5.582 2.0273 9.3008 5.0703 13.023 1.0156 0.92969 2.0273 1.8594 3.043 1.8594 1.0156 0 3.043-0.92968 3.043-1.8594 1.0156-0.92968 1.0156-2.7891 0-3.7226-1.0156-0.9297-1.0156-1.8594-1.0156-3.7188-1.0117-8.3711 5.0742-14.883 12.172-17.676 1.0156 5.582 8.1172 34.418 9.1328 40.93-13.188 3.7226-27.391 0-36.52-9.3008zm45.648 5.582c-2.0312-6.5117-3.043-13.953-5.0742-22.328-1.0117-5.5781-2.0273-12.09-4.0547-17.672 13.184 0 17.242 10.23 18.258 13.953 3.043 10.23 0 20.465-9.1289 26.047z" opacity=".3"/><path d="m170.35 184.65c-7.0977-7.4453-17.242-12.094-29.414-11.164-1.0156-1.8594-5.0742-20.465-5.0742-20.465s14.203-19.535 17.246-23.258c15.215-22.324 16.23-40 7.1016-57.672-3.043-6.5117-11.16-12.094-19.273-12.094-6.0859 0-11.16 4.6523-14.203 10.234-10.141 15.812-10.141 45.578-5.0703 66.043 0 0-5.0703 4.6524-10.145 10.234-10.141 10.23-21.301 21.395-25.355 36.277-5.0742 16.746-1.0156 32.559 10.141 44.652 12.172 13.953 30.43 20.465 52.746 18.605 4.0586 17.672 7.1016 28.836 1.0156 39.066-2.0273 3.7227-6.0859 7.4453-13.188 7.4453-2.0273 0-3.043 0-5.0703-0.93359 6.0859-2.7891 11.156-8.3711 11.156-14.883 0-9.3008-8.1133-16.742-18.258-16.742-17.242 0.92969-18.258 16.742-18.258 16.742 0 5.582 2.0274 11.164 6.0859 14.883 5.0703 4.6523 13.188 8.375 22.316 8.375 11.156 0 22.316-3.7227 26.371-18.605 4.0586-12.094-3.043-31.629-4.0547-38.141 11.156-4.6484 21.301-18.605 22.312-27.906 2.0312-10.23-2.0273-22.324-9.1289-30.695zm-32.457-103.26c1.0117-1.8594 3.043-2.7891 5.0703-2.7891 1.0156 0 3.043 0.92969 4.0586 1.8594 4.0586 1.8594 5.0703 5.582 5.0703 11.164-1.0117 13.953-14.199 30.695-21.301 36.277-3.043-13.023-1.0156-37.207 7.1016-46.512zm-29.418 146.05c-7.0977-6.5117-10.141-15.812-9.1289-25.117 2.0312-14.883 13.188-26.977 22.316-36.277 2.0273-1.8633 4.0586-3.7226 5.0703-5.582 1.0156 4.6524 4.0586 12.094 5.0742 15.812-12.172 4.6524-19.273 19.535-18.258 31.629 0 5.582 2.0273 9.3008 5.0703 13.023 1.0156 0.92968 2.0273 1.8594 3.043 1.8594 1.0156 0 3.043-0.92969 3.043-1.8594 1.0156-0.92969 1.0156-2.7891 0-3.7227-1.0156-0.92969-1.0156-1.8594-1.0156-3.7188-1.0117-8.3711 5.0742-14.883 12.172-17.676 1.0156 5.582 8.1172 34.418 9.1328 40.93-13.188 3.7226-27.391 0-36.52-9.3008zm45.648 5.582c-2.0312-6.5117-3.043-13.953-5.0742-22.328-1.0117-5.5781-2.0273-12.09-4.0547-17.672 13.184 0 17.242 10.23 18.258 13.953 3.043 10.23 0 20.465-9.1289 26.047z" fill="#0f2b5c"/><path transform="scale(.75)" d="m31 446.89v10c0 13.314 10.793 24.107 24.107 24.107h401.79c13.314 0 24.107-10.793 24.107-24.107v-10c0 13.314-10.793 24.107-24.107 24.107h-401.79c-13.314 0-24.107-10.793-24.107-24.107z" opacity=".3" stroke-width="1.3393"/><path transform="scale(.75)" d="m55.107 31c-13.314 0-24.107 10.793-24.107 24.107v10c0-13.314 10.793-24.107 24.107-24.107h401.79c13.314 0 24.107 10.793 24.107 24.107v-10c0-13.314-10.793-24.107-24.107-24.107h-401.79z" opacity=".1" stroke-width="1.3393"/></svg>
